SVG/adn.svg

<?xml version="1.0" encoding="utf-8"?>
<!-- Generated by IcoMoon.io -->
<!DOCTYPE svg PUBLIC "-//W3C//DTD SVG 1.1//EN" "http://www.w3.org/Graphics/SVG/1.1/DTD/svg11.dtd">
<svg version="1.1" xmlns="http://www.w3.org/2000/svg" xmlns:xlink="http://www.w3.org/1999/xlink" width="12" height="14" viewBox="0 0 12 14">
<path fill="#444444" d="M6 4.859l1.57 2.391h-3.141zM8.852 9h0.734l-3.586-5.398-3.586 5.398h0.734l0.813-1.25h4.078zM12 7q0 1.633-0.805 3.012t-2.184 2.184-3.012 0.805-3.012-0.805-2.184-2.184-0.805-3.012 0.805-3.012 2.184-2.184 3.012-0.805 3.012 0.805 2.184 2.184 0.805 3.012z"></path>
</svg>

<svg xmlns="http://www.w3.org/2000/svg" viewBox="0 0 12 14"><path d="M6 4.86l1.57 2.39H4.43zM8.852 9h.734L6 3.602 2.414 9h.734l.813-1.25h4.08zM12 7q0 1.633-.805 3.012T9.01 12.196 6 13t-3.013-.804-2.184-2.184T-.002 7t.805-3.012 2.184-2.184T6 1t3.01.804 2.185 2.184T12 7z" /></svg>
